; generated by Slic3r 1.1.7 on 2014-11-11 at 15:53:14

; perimeters extrusion width = 0.38mm
; infill extrusion width = 0.60mm
; solid infill extrusion width = 0.55mm
; top infill extrusion width = 0.55mm

G21 ; set units to millimeters
M107
M190 S80 ; wait for bed temperature to be reached
M109 S230
G28 ; home all axes
G92 E0  ;reset extruder
G90 ; use absolute coordinates
M83 ; use relative distances for extrusion
G1 F1800.000 E-2.00000
G1 Z0.300 F7800.000
G1 X57.665 Y77.772 F7800.000
G1 E2.00000 F1800.000
G1 X59.818 Y76.979 E0.18379 F1440.000
G1 X61.000 Y76.872 E0.09510
G1 X139.000 Y76.872 E6.24930
G1 X141.259 Y77.269 E0.18379
G1 X143.248 Y78.413 E0.18379 F1440.000
G1 X144.728 Y80.165 E0.18379
G1 X145.521 Y82.318 E0.18379
G1 X145.628 Y83.500 E0.09510
G1 X145.628 Y113.500 E2.40358
G1 X145.288 Y115.596 E0.17012
G1 X144.288 Y118.596 E0.25336
G1 X143.197 Y120.614 E0.18379
G1 X141.483 Y122.139 E0.18379
G1 X139.352 Y122.988 E0.18379
G1 X138.000 Y123.128 E0.10891
G1 X61.000 Y123.128 E6.16918
G1 X58.741 Y122.731 E0.18379
G1 X56.752 Y121.587 E0.18379
G1 X55.272 Y119.835 E0.18379
G1 X54.479 Y117.682 E0.18379
G1 X54.372 Y116.500 E0.09510
G1 X54.372 Y83.500 E2.64393
G1 X54.769 Y81.241 E0.18379
G1 X55.913 Y79.252 E0.18379
G1 X57.620 Y77.811 E0.17898
G1 F1800.000 E-2.00000
G1 X112.668 Y91.443 F7800.000
G1 E2.00000 F1800.000
G1 X112.298 Y91.309 E0.03151 F720.000
G1 X112.062 Y91.662 E0.03400
G1 X110.932 Y92.417 E0.10886
G1 X109.600 Y92.682 E0.10884
G1 X108.268 Y92.417 E0.10885
G1 X107.138 Y91.662 E0.10884
G1 X106.383 Y90.532 E0.10886
G1 X106.118 Y89.200 E0.10884
G1 X106.383 Y87.868 E0.10884
G1 X107.138 Y86.738 E0.10886
G1 X108.268 Y85.983 E0.10884
G1 X109.245 Y85.789 E0.07987
G1 X109.600 Y85.718 E0.02898
G1 X110.932 Y85.983 E0.10884
G1 X112.062 Y86.738 E0.10886
G1 X112.817 Y87.867 E0.10884
G1 X113.120 Y89.390 E0.12438
G1 X113.741 Y88.315 E0.09949
G1 X114.546 Y87.420 E0.09646
G1 X115.520 Y86.712 E0.09647
G1 X116.620 Y86.223 E0.09647
G1 X117.798 Y85.972 E0.09645
G1 X119.002 Y85.972 E0.09648
G1 X120.180 Y86.223 E0.09646
G1 X121.280 Y86.712 E0.09646
G1 X122.254 Y87.420 E0.09647
G1 X123.059 Y88.315 E0.09647
G1 X123.661 Y89.357 E0.09646
G1 X124.033 Y90.503 E0.09646
G1 X124.159 Y91.700 E0.09647
G1 X124.139 Y91.893 E0.01556
G1 X124.033 Y92.897 E0.08091
G1 X123.661 Y94.043 E0.09646
G1 X123.059 Y95.085 E0.09646
G1 X122.254 Y95.980 E0.09647
G1 X121.280 Y96.688 E0.09647
G1 X120.180 Y97.177 E0.09644
G1 X119.002 Y97.428 E0.09648
G1 X117.798 Y97.428 E0.09648
G1 X116.620 Y97.177 E0.09645
G1 X115.520 Y96.688 E0.09647
G1 X114.546 Y95.980 E0.09647
G1 X113.741 Y95.085 E0.09647
G1 X113.139 Y94.042 E0.09647
G1 X112.767 Y92.897 E0.09647
G1 X112.641 Y91.700 E0.09646
G1 X112.661 Y91.503 E0.01590
G1 X111.828 Y90.882 F7800.000
G1 X111.610 Y91.209 E0.03155 F720.000
G1 X110.687 Y91.826 E0.08884
G1 X109.600 Y92.042 E0.08883
G1 X108.512 Y91.826 E0.08884
G1 X107.591 Y91.210 E0.08884
G1 X106.974 Y90.287 E0.08884
G1 X106.758 Y89.200 E0.08884
G1 X106.974 Y88.113 E0.08884
G1 X107.591 Y87.190 E0.08884
G1 X108.512 Y86.575 E0.08884
G1 X109.368 Y86.404 E0.06987
G1 X109.600 Y86.358 E0.01897 F720.000
G1 X110.687 Y86.574 E0.08883
G1 X111.610 Y87.191 E0.08884
G1 X112.226 Y88.112 E0.08883
G1 X112.442 Y89.200 E0.08884
G1 X112.226 Y90.288 E0.08884
G1 X111.862 Y90.832 E0.05248
G1 X111.306 Y90.533 F7800.000
G1 X111.157 Y90.757 E0.02155 F504.000
G1 X110.443 Y91.234 E0.06883
G1 X109.600 Y91.402 E0.06883
G1 X108.757 Y91.234 E0.06883
G1 X108.043 Y90.757 E0.06883
G1 X107.566 Y90.043 E0.06883
G1 X107.398 Y89.200 E0.06883
G1 X107.566 Y88.357 E0.06883
G1 X108.043 Y87.643 E0.06883
G1 X108.757 Y87.166 E0.06883
G1 X109.600 Y86.998 E0.06883
G1 X110.333 Y87.144 E0.05986
G1 X110.443 Y87.166 E0.00897 F504.000
G1 X111.157 Y87.643 E0.06883
G1 X111.634 Y88.357 E0.06883
G1 X111.802 Y89.200 E0.06883
G1 X111.634 Y90.043 E0.06883
G1 X111.340 Y90.483 E0.04248
G1 F1800.000 E-2.00000
G1 X110.332 Y87.032 F7800.000
G1 X113.372 Y90.750 F7800.000
G1 E2.00000 F1800.000
G1 X113.384 Y90.634 E0.00938 F720.000
G1 X113.715 Y89.614 E0.08589
G1 X114.251 Y88.686 E0.08590
G1 X114.969 Y87.889 E0.08589
G1 X115.836 Y87.259 E0.08590
G1 X116.815 Y86.823 E0.08590
G1 X117.864 Y86.600 E0.08588
G1 X118.936 Y86.600 E0.08590 F720.000
G1 X119.985 Y86.823 E0.08589
G1 X120.964 Y87.259 E0.08589
G1 X121.831 Y87.889 E0.08590
G1 X122.549 Y88.686 E0.08589
G1 X123.085 Y89.614 E0.08589
G1 X123.416 Y90.634 E0.08589
G1 X123.515 Y91.572 E0.07562
G1 X123.528 Y91.700 E0.01028
G1 X123.416 Y92.766 E0.08590
G1 X123.085 Y93.786 E0.08589
G1 X122.549 Y94.714 E0.08589
G1 X121.831 Y95.511 E0.08590
G1 X120.964 Y96.141 E0.08590
G1 X119.985 Y96.577 E0.08588
G1 X118.936 Y96.800 E0.08590
G1 X117.864 Y96.800 E0.08590
G1 X116.815 Y96.577 E0.08588
G1 X115.836 Y96.141 E0.08590
G1 X114.969 Y95.511 E0.08589
G1 X114.251 Y94.714 E0.08590
G1 X113.715 Y93.786 E0.08589
G1 X113.384 Y92.766 E0.08589
G1 X113.272 Y91.700 E0.08589
G1 X113.365 Y90.810 E0.07170
G1 X113.996 Y90.816 F7800.000
G1 X114.292 Y89.871 E0.07933 F504.000
G1 X114.762 Y89.057 E0.07532
G1 X115.391 Y88.358 E0.07532
G1 X116.152 Y87.806 E0.07532
G1 X117.010 Y87.423 E0.07532
G1 X117.930 Y87.228 E0.07532
G1 X118.870 Y87.228 E0.07532
G1 X119.245 Y87.307 E0.03071
G1 X119.790 Y87.423 E0.04461 F504.000
G1 X120.648 Y87.806 E0.07532
G1 X121.409 Y88.358 E0.07532
G1 X122.038 Y89.057 E0.07532
G1 X122.508 Y89.871 E0.07532
G1 X122.799 Y90.765 E0.07532
G1 X122.890 Y91.762 E0.08021
G1 X122.799 Y92.635 E0.07033
G1 X122.508 Y93.529 E0.07532
G1 X122.038 Y94.343 E0.07532
G1 X121.409 Y95.042 E0.07532
G1 X120.648 Y95.594 E0.07532
G1 X119.790 Y95.977 E0.07532
G1 X118.870 Y96.172 E0.07532
G1 X117.930 Y96.172 E0.07532
G1 X117.010 Y95.977 E0.07532
G1 X116.152 Y95.594 E0.07532
G1 X115.391 Y95.042 E0.07532
G1 X114.762 Y94.343 E0.07532
G1 X114.292 Y93.529 E0.07532
G1 X114.001 Y92.635 E0.07532
G1 X113.903 Y91.700 E0.07532
G1 X113.990 Y90.876 E0.06642
G1 F1800.000 E-2.00000
G1 X119.413 Y86.944 F7800.000
G1 X111.706 Y95.099 F7800.000
G1 E2.00000 F1800.000
G1 X111.976 Y95.244 E0.02455 F720.000
G1 X112.625 Y95.775 E0.06718
G1 X113.157 Y96.423 E0.06718
G1 X113.552 Y97.163 E0.06718
G1 X113.795 Y97.966 E0.06720
G1 X113.877 Y98.800 E0.06718
G1 X113.795 Y99.634 E0.06718
G1 X113.552 Y100.437 E0.06720
G1 X113.157 Y101.176 E0.06718
G1 X112.625 Y101.825 E0.06718
G1 X111.976 Y102.356 E0.06718
G1 X111.237 Y102.752 E0.06719
G1 X110.435 Y102.995 E0.06718
G1 X109.600 Y103.077 E0.06719
G1 X108.766 Y102.995 E0.06718
G1 X107.963 Y102.752 E0.06720
G1 X107.224 Y102.357 E0.06718
G1 X106.575 Y101.825 E0.06717
G1 X106.043 Y101.177 E0.06718
G1 X105.648 Y100.437 E0.06719
G1 X105.405 Y99.635 E0.06718
G1 X105.323 Y98.800 E0.06719
G1 X105.405 Y97.965 E0.06719
G1 X105.648 Y97.163 E0.06718
G1 X106.043 Y96.423 E0.06719
G1 X106.575 Y95.775 E0.06718
G1 X107.223 Y95.244 E0.06716
G1 X107.963 Y94.848 E0.06718
G1 X108.766 Y94.605 E0.06719
G1 X109.600 Y94.523 E0.06718
G1 X110.320 Y94.593 E0.05796
G1 X110.435 Y94.605 E0.00923 F720.000
G1 X111.237 Y94.848 E0.06718
G1 X111.653 Y95.071 E0.03784
G1 X111.410 Y95.653 F7800.000
G1 X111.626 Y95.768 E0.01959 F504.000
G1 X112.179 Y96.221 E0.05727
G1 X112.632 Y96.774 E0.05727
G1 X112.969 Y97.404 E0.05727
G1 X113.177 Y98.089 E0.05728
G1 X113.247 Y98.800 E0.05727
G1 X113.177 Y99.511 E0.05727
G1 X112.969 Y100.196 E0.05728
G1 X112.632 Y100.826 E0.05727
G1 X112.179 Y101.379 E0.05727
G1 X111.626 Y101.832 E0.05727
G1 X110.996 Y102.169 E0.05728
G1 X110.258 Y102.382 E0.06147
G1 X109.600 Y102.447 E0.05300
G1 X108.889 Y102.377 E0.05727
G1 X108.204 Y102.169 E0.05728
G1 X107.574 Y101.832 E0.05727
G1 X106.988 Y101.337 E0.06147
G1 X106.568 Y100.826 E0.05300
G1 X106.231 Y100.196 E0.05728
G1 X106.023 Y99.511 E0.05727
G1 X105.953 Y98.800 E0.05728
G1 X106.023 Y98.089 E0.05728
G1 X106.231 Y97.404 E0.05728
G1 X106.568 Y96.774 E0.05728
G1 X107.021 Y96.221 E0.05728
G1 X107.574 Y95.768 E0.05726
G1 X108.204 Y95.431 E0.05728
G1 X108.889 Y95.223 E0.05728
G1 X109.547 Y95.159 E0.05300
G1 X110.311 Y95.223 E0.06148 F504.000
G1 X110.996 Y95.431 E0.05727
G1 X111.357 Y95.624 E0.03288
G1 X109.389 Y94.791 F7800.000
G1 F1800.000 E-2.00000
G1 X135.772 Y111.272 F7800.000
G1 E2.00000 F1800.000
G1 X135.772 Y114.272 E0.24036 F720.000
G1 X105.228 Y114.272 E2.44711
G1 X105.228 Y102.162 E0.97019
G1 X105.683 Y102.717 E0.05747
G1 X106.523 Y103.405 E0.08697
G1 X107.480 Y103.917 E0.08699
G1 X108.519 Y104.233 E0.08703
G1 X109.600 Y104.339 E0.08698
G1 X110.443 Y104.256 E0.06788
G1 X110.681 Y104.233 E0.01914
G1 X111.720 Y103.917 E0.08699
G1 X112.677 Y103.405 E0.08701
G1 X113.517 Y102.717 E0.08699
G1 X114.206 Y101.877 E0.08698
G1 X114.717 Y100.920 E0.08698
G1 X115.033 Y99.880 E0.08703
G1 X115.139 Y98.800 E0.08698
G1 X115.033 Y97.720 E0.08698
G1 X114.836 Y97.070 E0.05437
G1 X116.425 Y97.778 E0.13941
G1 X117.732 Y98.056 E0.10701
G1 X119.068 Y98.056 E0.10706
G1 X120.375 Y97.778 E0.10705
G1 X121.595 Y97.234 E0.10701
G1 X122.676 Y96.449 E0.10705
G1 X123.570 Y95.456 E0.10704
G1 X124.238 Y94.299 E0.10703
G1 X124.651 Y93.029 E0.10703
G1 X124.763 Y91.959 E0.08620
G1 X124.791 Y91.700 E0.02085
G1 X124.651 Y90.371 E0.10704
G1 X124.238 Y89.101 E0.10703
G1 X123.570 Y87.944 E0.10704
G1 X122.676 Y86.951 E0.10704
G1 X121.471 Y86.075 E0.11934
G1 X121.584 Y85.728 E0.02923
G1 X136.772 Y85.728 E1.21684
G1 X136.772 Y88.433 E0.21667
G1 X136.263 Y88.483 E0.04094
G1 X135.074 Y88.844 E0.09957
G1 X133.978 Y89.429 E0.09955
G1 X133.018 Y90.218 E0.09957
G1 X132.229 Y91.178 E0.09955
G1 X131.643 Y92.274 E0.09957
G1 X131.283 Y93.463 E0.09956
G1 X131.161 Y94.700 E0.09957
G1 X131.283 Y95.937 E0.09956
G1 X131.644 Y97.126 E0.09957
G1 X132.229 Y98.222 E0.09956
G1 X133.018 Y99.182 E0.09955
G1 X133.978 Y99.971 E0.09957
G1 X135.074 Y100.557 E0.09955
G1 X136.263 Y100.917 E0.09956
G1 X136.772 Y100.967 E0.04094
G1 X136.772 Y111.272 E0.82558
G1 X135.832 Y111.272 E0.07531
G1 F1800.000 E-2.00000
G1 X115.329 Y86.075 F7800.000
G1 E2.00000 F1800.000
G1 X114.124 Y86.951 E0.11935 F720.000
G1 X113.455 Y87.693 E0.08003
G1 X112.515 Y86.285 E0.13566
G1 X112.214 Y86.085 E0.02894
G1 X112.323 Y85.728 E0.02984
G1 X115.216 Y85.728 E0.23184
G1 X115.310 Y86.018 E0.02443
G1 X106.877 Y85.728 F7800.000
G1 X106.986 Y86.085 E0.02984 F720.000
G1 X106.685 Y86.285 E0.02892
G1 X105.792 Y87.623 E0.12887
G1 X105.681 Y88.178 E0.04539
G1 X105.228 Y88.134 E0.03647
G1 X105.228 Y85.728 E0.19272
G1 X106.817 Y85.728 E0.12732
G1 X105.681 Y90.222 F7800.000
G1 X105.792 Y90.777 E0.04539 F720.000
G1 X106.685 Y92.115 E0.12887
G1 X108.023 Y93.008 E0.12885
G1 X108.247 Y93.053 E0.01831
G1 X108.266 Y93.444 E0.03140
G1 X107.480 Y93.683 E0.06580
G1 X106.523 Y94.195 E0.08699
G1 X105.683 Y94.883 E0.08696
G1 X105.228 Y95.438 E0.05748
G1 X105.228 Y90.266 E0.41432
G1 X105.622 Y90.228 E0.03166
G1 X110.953 Y93.053 F7800.000
G1 X111.177 Y93.008 E0.01830 F720.000
G1 X112.083 Y92.403 E0.08730
G1 X112.149 Y93.029 E0.05041
G1 X112.496 Y94.098 E0.09007
G1 X111.720 Y93.683 E0.07057
G1 X110.934 Y93.444 E0.06578
G1 X110.950 Y93.113 E0.02659
G1 X136.399 Y111.899 F7800.000
G1 X136.399 Y114.899 E0.24036 F720.000
G1 X104.601 Y114.899 E2.54771
G1 X104.601 Y100.615 E1.14444
G1 X104.981 Y100.520 E0.03140
G1 X105.519 Y101.527 E0.09149
G1 X106.129 Y102.271 E0.07709
G1 X106.873 Y102.881 E0.07707
G1 X107.721 Y103.335 E0.07708
G1 X108.642 Y103.614 E0.07711
G1 X109.600 Y103.708 E0.07708
G1 X110.558 Y103.614 E0.07711
G1 X111.478 Y103.335 E0.07708
G1 X112.327 Y102.881 E0.07710
G1 X113.071 Y102.271 E0.07708
G1 X113.681 Y101.527 E0.07708
G1 X114.135 Y100.679 E0.07708
G1 X114.414 Y99.757 E0.07712
G1 X114.508 Y98.800 E0.07708
G1 X114.414 Y97.843 E0.07708
G1 X114.135 Y96.921 E0.07712
G1 X113.681 Y96.073 E0.07708
G1 X113.071 Y95.329 E0.07708
G1 X112.327 Y94.719 E0.07708
G1 X111.478 Y94.265 E0.07710
G1 X110.558 Y93.986 E0.07708
G1 X109.600 Y93.892 E0.07711
G1 X108.642 Y93.986 E0.07708
G1 X107.721 Y94.265 E0.07711
G1 X106.873 Y94.719 E0.07709
G1 X106.129 Y95.329 E0.07706
G1 X105.519 Y96.073 E0.07709
G1 X104.981 Y97.080 E0.09149
G1 X104.601 Y96.985 E0.03140
G1 X104.601 Y85.101 E0.95216
G1 X137.399 Y85.101 E2.62783
G1 X137.399 Y89.002 E0.31255
G1 X136.386 Y89.101 E0.08157
G1 X135.315 Y89.426 E0.08966
G1 X134.329 Y89.954 E0.08964
G1 X133.464 Y90.664 E0.08966
G1 X132.754 Y91.529 E0.08965
G1 X132.226 Y92.516 E0.08966
G1 X131.901 Y93.586 E0.08965
G1 X131.792 Y94.700 E0.08966
G1 X131.901 Y95.814 E0.08966
G1 X132.226 Y96.885 E0.08966
G1 X132.754 Y97.871 E0.08965
G1 X133.464 Y98.736 E0.08964
G1 X134.329 Y99.446 E0.08966
G1 X135.315 Y99.974 E0.08965
G1 X136.386 Y100.299 E0.08965
G1 X137.399 Y100.398 E0.08157
G1 X137.399 Y111.899 E0.92146
G1 X136.459 Y111.899 E0.07531
G1 X137.027 Y112.527 F7800.000
G1 X137.027 Y115.527 E0.24036 F720.000
G1 X103.973 Y115.527 E2.64830
G1 X103.973 Y84.473 E2.48806
G1 X138.027 Y84.473 E2.72842
G1 X138.027 Y89.674 E0.41676
G1 X137.500 Y89.623 E0.04244
G1 X136.509 Y89.720 E0.07976
G1 X135.557 Y90.009 E0.07975
G1 X134.679 Y90.478 E0.07974
G1 X133.910 Y91.110 E0.07975
G1 X133.278 Y91.879 E0.07974
G1 X132.809 Y92.757 E0.07975
G1 X132.520 Y93.709 E0.07975
G1 X132.423 Y94.700 E0.07975
G1 X132.520 Y95.691 E0.07975
G1 X132.809 Y96.643 E0.07975
G1 X133.278 Y97.521 E0.07975
G1 X133.910 Y98.290 E0.07974
G1 X134.679 Y98.922 E0.07975
G1 X135.557 Y99.391 E0.07974
G1 X136.509 Y99.680 E0.07975
G1 X137.500 Y99.777 E0.07975
G1 X138.027 Y99.726 E0.04245
G1 X138.027 Y112.527 E1.02566
G1 X137.087 Y112.527 E0.07531
G1 X137.655 Y113.155 F7800.000
G1 X137.655 Y116.155 E0.24036 F504.000
G1 X103.345 Y116.155 E2.74889
G1 X103.345 Y83.845 E2.58865
G1 X138.655 Y83.845 E2.82901
G1 X138.655 Y90.367 E0.52254
G1 X137.500 Y90.253 E0.09298
G1 X136.632 Y90.339 E0.06984
G1 X135.798 Y90.592 E0.06984
G1 X135.030 Y91.003 E0.06983
G1 X134.356 Y91.556 E0.06984
G1 X133.803 Y92.230 E0.06984
G1 X133.392 Y92.998 E0.06984
G1 X133.139 Y93.832 E0.06984
G1 X133.053 Y94.700 E0.06984
G1 X133.139 Y95.568 E0.06984
G1 X133.392 Y96.402 E0.06984
G1 X133.803 Y97.170 E0.06984
G1 X134.356 Y97.844 E0.06984
G1 X135.030 Y98.397 E0.06984
G1 X135.798 Y98.808 E0.06984
G1 X136.632 Y99.061 E0.06984
G1 X137.500 Y99.147 E0.06984
G1 X138.655 Y99.033 E0.09299
G1 X138.655 Y113.155 E1.13146
G1 X137.715 Y113.155 E0.07531
G1 X137.255 Y113.155 F7800.000
G1 X136.337 Y101.442 F7800.000
G1 X136.247 Y101.353 E0.01013 F1080.000
G1 X134.981 Y100.983 F7800.000
G1 X136.337 Y102.339 E0.15362 F1080.000
G1 X136.337 Y103.235 E0.07182
G1 X125.188 Y92.086 E1.26326
G1 X125.102 Y92.897 E0.06535
G1 X136.337 Y104.132 E1.27292
G1 X136.337 Y105.028 E0.07182
G1 X124.919 Y93.611 E1.29364
G1 X124.699 Y94.287 E0.05700
G1 X136.337 Y105.924 E1.31855
G1 X136.337 Y106.821 E0.07182
G1 X124.402 Y94.886 E1.35228
G1 X124.074 Y95.454 E0.05258
G1 X136.337 Y107.717 E1.38946
G1 X136.337 Y108.614 E0.07182
G1 X123.693 Y95.970 E1.43259
G1 X123.268 Y96.442 E0.05085
G1 X136.337 Y109.510 E1.48071
G1 X136.337 Y110.406 E0.07182
G1 X122.816 Y96.886 E1.53198
G1 X122.297 Y97.263 E0.05142
G1 X135.870 Y110.837 E1.53800
G1 X135.337 Y111.199 E0.05170
G1 X121.770 Y97.633 E1.53715
G1 X121.150 Y97.909 E0.05440
G1 X135.337 Y112.096 E1.60742
G1 X135.337 Y112.992 E0.07182
G1 X120.530 Y98.185 E1.67770
G1 X119.794 Y98.346 E0.06032
G1 X135.285 Y113.837 E1.75517
G1 X134.388 Y113.837 E0.07182
G1 X119.043 Y98.491 E1.73878
G1 X118.146 Y98.491 E0.07182
G1 X133.492 Y113.837 E1.73878
G1 X132.596 Y113.837 E0.07182
G1 X117.132 Y98.373 E1.75213
G1 X115.869 Y98.006 E0.10535
G1 X131.699 Y113.837 E1.79365
G1 X130.803 Y113.837 E0.07182
G1 X115.556 Y98.589 E1.72759
G1 X115.513 Y99.443 E0.06849
G1 X129.906 Y113.837 E1.63085
G1 X129.010 Y113.837 E0.07182
G1 X115.386 Y100.213 E1.54362
G1 X115.178 Y100.901 E0.05758
G1 X128.114 Y113.837 E1.46569
G1 X127.217 Y113.837 E0.07182
G1 X114.894 Y101.513 E1.39632
G1 X114.581 Y102.097 E0.05307
G1 X126.321 Y113.837 E1.33013
G1 X125.424 Y113.837 E0.07182
G1 X114.181 Y102.593 E1.27394
G1 X113.766 Y103.075 E0.05092
G1 X124.528 Y113.837 E1.21936
G1 X123.632 Y113.837 E0.07182
G1 X113.274 Y103.479 E1.17359
G1 X112.756 Y103.857 E0.05140
G1 X122.735 Y113.837 E1.13074
G1 X121.839 Y113.837 E0.07182
G1 X112.171 Y104.169 E1.09536
G1 X111.534 Y104.428 E0.05512
G1 X120.942 Y113.837 E1.06600
