; generated by Slic3r 1.1.7 on 2014-08-26 at 09:39:53

; perimeters extrusion width = 0.38mm
; infill extrusion width = 0.60mm
; solid infill extrusion width = 0.55mm
; top infill extrusion width = 0.55mm

G21 ; set units to millimeters
M107
M190 S80 ; wait for bed temperature to be reached
M109 S230
G28 ; home all axes
G92 E0  ;reset extruder
G90 ; use absolute coordinates
M83 ; use relative distances for extrusion
G1 F1800.000 E-2.00000
G1 Z0.250 F7800.000
G1 X57.762 Y77.833 F7800.000
G1 E2.00000 F1800.000
G1 X61.000 Y76.973 E0.06725 F1440.000
G1 X139.000 Y76.973 E1.56576
G1 X141.241 Y77.370 E0.04569
G1 X143.210 Y78.513 E0.04569 F1440.000
G1 X144.667 Y80.262 E0.04569
G1 X145.527 Y83.500 E0.06725
G1 X145.527 Y113.500 E0.60221
G1 X145.192 Y115.564 E0.04197
G1 X144.192 Y118.564 E0.06348
G1 X143.106 Y120.565 E0.04569
G1 X141.400 Y122.071 E0.04569
G1 X139.280 Y122.900 E0.04569
G1 X138.000 Y123.027 E0.02582
G1 X61.000 Y123.027 E1.54568
G1 X58.759 Y122.630 E0.04569
G1 X56.790 Y121.487 E0.04569
G1 X55.333 Y119.738 E0.04569
G1 X54.473 Y116.500 E0.06725
G1 X54.473 Y83.500 E0.66244
G1 X54.870 Y81.259 E0.04569
G1 X56.013 Y79.290 E0.04569
G1 X57.722 Y77.867 E0.04464
G1 F1800.000 E-2.00000
G1 X111.875 Y91.475 F7800.000
G1 E2.00000 F1800.000
G1 X110.831 Y92.172 E0.02520 F720.000
G1 X109.600 Y92.417 E0.02520
G1 X108.369 Y92.172 E0.02520
G1 X107.325 Y91.475 E0.02520
G1 X106.628 Y90.431 E0.02520
G1 X106.383 Y89.200 E0.02520
G1 X106.628 Y87.969 E0.02520
G1 X107.325 Y86.925 E0.02520
G1 X108.369 Y86.228 E0.02520
G1 X109.600 Y85.983 E0.02520
G1 X110.534 Y86.169 E0.01912
G1 X110.831 Y86.228 E0.00608 F720.000
G1 X111.875 Y86.925 E0.02520
G1 X112.572 Y87.969 E0.02520
G1 X112.817 Y89.200 E0.02520
G1 X112.572 Y90.431 E0.02520
G1 X111.904 Y91.431 E0.02415
G1 X111.495 Y91.095 F7800.000
G1 X110.626 Y91.676 E0.02099 F720.000
G1 X109.600 Y91.880 E0.02099
G1 X109.406 Y91.842 E0.00398
G1 X108.574 Y91.676 E0.01702
G1 X107.705 Y91.095 E0.02099
G1 X107.124 Y90.226 E0.02099
G1 X106.920 Y89.200 E0.02099
G1 X107.124 Y88.174 E0.02099
G1 X107.705 Y87.305 E0.02099
G1 X108.574 Y86.724 E0.02099
G1 X109.406 Y86.558 E0.01702
G1 X109.600 Y86.520 E0.00398 F720.000
G1 X110.626 Y86.724 E0.02099
G1 X111.495 Y87.305 E0.02099
G1 X112.076 Y88.174 E0.02099
G1 X112.280 Y89.200 E0.02099
G1 X112.076 Y90.226 E0.02099
G1 X111.524 Y91.052 E0.01994
G1 X111.115 Y90.715 F7800.000
G1 X110.420 Y91.180 E0.01679 F504.000
G1 X109.600 Y91.343 E0.01679
G1 X109.509 Y91.325 E0.00187
G1 X108.780 Y91.180 E0.01491
G1 X108.085 Y90.715 E0.01679
G1 X107.620 Y90.020 E0.01679
G1 X107.457 Y89.200 E0.01679
G1 X107.620 Y88.380 E0.01679
G1 X108.085 Y87.685 E0.01679
G1 X108.780 Y87.220 E0.01679
G1 X109.600 Y87.057 E0.01679
G1 X110.329 Y87.202 E0.01491
G1 X110.420 Y87.220 E0.00187 F504.000
G1 X111.115 Y87.685 E0.01679
G1 X111.580 Y88.380 E0.01679
G1 X111.743 Y89.200 E0.01679
G1 X111.580 Y90.020 E0.01679
G1 X111.145 Y90.672 E0.01573
G1 F1800.000 E-2.00000
G1 X110.328 Y87.109 F7800.000
G1 X110.507 Y94.242 F7800.000
G1 E2.00000 F1800.000
G1 X111.379 Y94.506 E0.01829 F720.000
G1 X112.182 Y94.936 E0.01829
G1 X112.886 Y95.514 E0.01829
G1 X113.464 Y96.218 E0.01829
G1 X113.894 Y97.022 E0.01829
G1 X114.158 Y97.893 E0.01829
G1 X114.247 Y98.800 E0.01829
G1 X114.233 Y98.947 E0.00297
G1 X114.158 Y99.707 E0.01531
G1 X113.894 Y100.578 E0.01829
G1 X113.464 Y101.382 E0.01829
G1 X112.886 Y102.086 E0.01829
G1 X112.182 Y102.664 E0.01829
G1 X111.379 Y103.094 E0.01829
G1 X110.507 Y103.358 E0.01829
G1 X109.600 Y103.447 E0.01829
G1 X108.693 Y103.358 E0.01829
G1 X107.821 Y103.094 E0.01829
G1 X107.018 Y102.664 E0.01829
G1 X106.314 Y102.086 E0.01829
G1 X105.736 Y101.382 E0.01829
G1 X105.306 Y100.579 E0.01829
G1 X105.042 Y99.707 E0.01829
G1 X104.953 Y98.800 E0.01829
G1 X105.042 Y97.893 E0.01829
G1 X105.306 Y97.021 E0.01829
G1 X105.736 Y96.218 E0.01829
G1 X106.314 Y95.514 E0.01829
G1 X107.018 Y94.936 E0.01829
G1 X107.821 Y94.506 E0.01829
G1 X108.693 Y94.242 E0.01829
G1 X109.600 Y94.153 E0.01829
G1 X110.359 Y94.227 E0.01531
G1 X110.454 Y94.237 E0.00192 F720.000
G1 X110.403 Y94.761 F7800.000
G1 X111.176 Y94.995 E0.01621 F720.000
G1 X111.888 Y95.376 E0.01620
G1 X112.512 Y95.888 E0.01620
G1 X113.024 Y96.512 E0.01621
G1 X113.405 Y97.224 E0.01621
G1 X113.639 Y97.997 E0.01621
G1 X113.718 Y98.800 E0.01621
G1 X113.709 Y98.896 E0.00193
G1 X113.639 Y99.603 E0.01427
G1 X113.405 Y100.376 E0.01621
G1 X113.024 Y101.088 E0.01621
G1 X112.512 Y101.712 E0.01621
G1 X111.888 Y102.224 E0.01620
G1 X111.176 Y102.605 E0.01620
G1 X110.403 Y102.839 E0.01621
G1 X109.600 Y102.918 E0.01621
G1 X108.797 Y102.839 E0.01621
G1 X108.024 Y102.605 E0.01621
G1 X107.312 Y102.224 E0.01620
G1 X106.688 Y101.712 E0.01620
G1 X106.176 Y101.088 E0.01621
G1 X105.795 Y100.376 E0.01621
G1 X105.561 Y99.603 E0.01621
G1 X105.482 Y98.800 E0.01621
G1 X105.561 Y97.997 E0.01620
G1 X105.795 Y97.224 E0.01621
G1 X106.176 Y96.512 E0.01620
G1 X106.688 Y95.888 E0.01621
G1 X107.312 Y95.376 E0.01620
G1 X108.024 Y94.995 E0.01620
G1 X108.797 Y94.761 E0.01621
G1 X109.504 Y94.691 E0.01427
G1 X109.600 Y94.682 E0.00193 F720.000
G1 X110.351 Y94.756 E0.01515
G1 X110.300 Y95.280 F7800.000
G1 X110.973 Y95.484 E0.01412 F504.000
G1 X111.594 Y95.816 E0.01412
G1 X112.138 Y96.262 E0.01412
G1 X112.584 Y96.806 E0.01412
G1 X112.916 Y97.427 E0.01412
G1 X113.120 Y98.100 E0.01412
G1 X113.185 Y98.844 E0.01500
G1 X113.120 Y99.500 E0.01323
G1 X112.916 Y100.173 E0.01412
G1 X112.584 Y100.794 E0.01412
G1 X112.138 Y101.338 E0.01412
G1 X111.594 Y101.784 E0.01412
G1 X110.973 Y102.116 E0.01412
G1 X110.300 Y102.320 E0.01412
G1 X109.600 Y102.389 E0.01412
G1 X108.900 Y102.320 E0.01412
G1 X108.227 Y102.116 E0.01412
G1 X107.606 Y101.784 E0.01412
G1 X107.062 Y101.338 E0.01412
G1 X106.616 Y100.794 E0.01412
G1 X106.284 Y100.173 E0.01412
G1 X106.080 Y99.500 E0.01412
G1 X106.011 Y98.800 E0.01412
G1 X106.080 Y98.100 E0.01412
G1 X106.284 Y97.427 E0.01412
G1 X106.616 Y96.806 E0.01412
G1 X107.062 Y96.262 E0.01412
G1 X107.606 Y95.816 E0.01412
G1 X108.227 Y95.484 E0.01412
G1 X108.900 Y95.280 E0.01412
G1 X109.600 Y95.211 E0.01412
G1 X110.248 Y95.275 E0.01307
G1 X110.539 Y95.025 F7800.000
G1 X136.659 Y112.159 F7800.000
G1 X136.659 Y115.159 E0.06022 F720.000
G1 X104.341 Y115.159 E0.64875
G1 X104.341 Y84.841 E0.60860
G1 X137.659 Y84.841 E0.66882
G1 X137.659 Y89.287 E0.08925
G1 X136.428 Y89.408 E0.02484
G1 X135.396 Y89.721 E0.02163
G1 X134.446 Y90.229 E0.02164
G1 X133.613 Y90.913 E0.02163
G1 X132.929 Y91.746 E0.02164
G1 X132.421 Y92.696 E0.02163
G1 X132.108 Y93.728 E0.02163
G1 X132.003 Y94.800 E0.02163
G1 X132.108 Y95.872 E0.02163
G1 X132.421 Y96.904 E0.02163
G1 X132.929 Y97.854 E0.02163
G1 X133.613 Y98.687 E0.02164
G1 X134.446 Y99.371 E0.02163
G1 X135.396 Y99.879 E0.02164
G1 X136.428 Y100.192 E0.02163
G1 X137.659 Y100.313 E0.02484
G1 X137.659 Y112.159 E0.23779
G1 X136.712 Y112.159 E0.01902
G1 X137.186 Y112.686 F7800.000
G1 X137.186 Y115.686 E0.06022 F720.000
G1 X103.814 Y115.686 E0.66989
G1 X103.814 Y84.314 E0.62975
G1 X138.186 Y84.314 E0.68997
G1 X138.186 Y89.899 E0.11212
G1 X137.500 Y89.832 E0.01383
G1 X136.531 Y89.927 E0.01955
G1 X135.599 Y90.210 E0.01955
G1 X134.740 Y90.669 E0.01955
G1 X133.987 Y91.287 E0.01955
G1 X133.369 Y92.040 E0.01955
G1 X132.910 Y92.899 E0.01955
G1 X132.627 Y93.831 E0.01955
G1 X132.532 Y94.800 E0.01955
G1 X132.627 Y95.769 E0.01955
G1 X132.910 Y96.701 E0.01955
G1 X133.369 Y97.560 E0.01955
G1 X133.987 Y98.313 E0.01955
G1 X134.740 Y98.931 E0.01955
G1 X135.599 Y99.390 E0.01955
G1 X136.531 Y99.673 E0.01955
G1 X137.500 Y99.768 E0.01955
G1 X138.186 Y99.701 E0.01383
G1 X138.186 Y112.686 E0.26066
G1 X137.238 Y112.686 E0.01902
G1 X137.713 Y113.213 F7800.000
G1 X137.713 Y116.213 E0.06022 F504.000
G1 X103.288 Y116.213 E0.69104
G1 X103.288 Y83.788 E0.65089
G1 X138.713 Y83.788 E0.71111
G1 X138.713 Y90.552 E0.13578
G1 X138.366 Y90.446 E0.00727
G1 X137.500 Y90.361 E0.01747
G1 X136.634 Y90.446 E0.01747
G1 X135.801 Y90.699 E0.01747
G1 X135.034 Y91.109 E0.01747
G1 X134.361 Y91.661 E0.01747
G1 X133.809 Y92.334 E0.01747
G1 X133.399 Y93.101 E0.01747
G1 X133.146 Y93.934 E0.01747
G1 X133.061 Y94.800 E0.01747
G1 X133.146 Y95.666 E0.01747
G1 X133.399 Y96.499 E0.01747
G1 X133.809 Y97.266 E0.01747
G1 X134.361 Y97.939 E0.01747
G1 X135.034 Y98.491 E0.01747
G1 X135.801 Y98.901 E0.01747
G1 X136.634 Y99.154 E0.01747
G1 X137.500 Y99.239 E0.01747
G1 X138.366 Y99.154 E0.01747
G1 X138.713 Y99.048 E0.00727
G1 X138.713 Y113.213 E0.28433
G1 X137.765 Y113.213 E0.01902
G1 X137.363 Y113.213 F7800.000
G1 X137.297 Y103.950 F7800.000
G1 X118.550 Y85.203 E0.53222 F1080.000
G1 X117.801 Y85.203 E0.01502
G1 X137.297 Y104.699 E0.55346
G1 X137.297 Y105.447 E0.01502
G1 X117.053 Y85.203 E0.57470
G1 X116.305 Y85.203 E0.01502
G1 X137.297 Y106.195 E0.59595
G1 X137.297 Y106.943 E0.01502
G1 X115.557 Y85.203 E0.61719
G1 X114.808 Y85.203 E0.01502
G1 X137.297 Y107.692 E0.63843
G1 X137.297 Y108.440 E0.01502
G1 X114.060 Y85.203 E0.65968
G1 X113.312 Y85.203 E0.01502
G1 X137.297 Y109.188 E0.68092
G1 X137.297 Y109.937 E0.01502
G1 X112.563 Y85.203 E0.70216
G1 X111.815 Y85.203 E0.01502
G1 X137.297 Y110.685 E0.72341
G1 X137.297 Y111.433 E0.01502
G1 X111.101 Y85.237 E0.74367
G1 X111.034 Y85.918 E0.01374
G1 X111.063 Y85.948 E0.00082
G1 X112.852 Y87.737 F7800.000
G1 X136.913 Y111.797 E0.68304 F1080.000
G1 X136.297 Y111.930 E0.01264
G1 X113.091 Y88.724 E0.65878
G1 X113.125 Y89.506 E0.01571
G1 X136.297 Y112.678 E0.65782
G1 X136.297 Y113.426 E0.01502
G1 X113.001 Y90.130 E0.66135
G1 X112.826 Y90.703 E0.01203
G1 X136.297 Y114.175 E0.66633
G1 X136.171 Y114.797 E0.01275
G1 X112.526 Y91.152 E0.67126
G1 X112.226 Y91.600 E0.01083
G1 X135.423 Y114.797 E0.65853
G1 X134.675 Y114.797 E0.01502
G1 X111.823 Y91.945 E0.64874
G1 X111.374 Y92.245 E0.01083
G1 X133.926 Y114.797 E0.64023
G1 X133.178 Y114.797 E0.01502
G1 X110.907 Y92.526 E0.63225
G1 X110.283 Y92.650 E0.01277
G1 X112.131 Y94.498 E0.05246
G1 X110.853 Y93.969 F7800.000
G1 X109.659 Y92.774 E0.03391 F1080.000
G1 X108.754 Y92.618 E0.01844
G1 X109.961 Y93.824 E0.03426
G1 X109.215 Y93.827 E0.01497
G1 X104.703 Y89.315 E0.12809
G1 X104.703 Y90.063 E0.01502
G1 X108.547 Y93.908 E0.10914
G1 X107.973 Y94.082 E0.01204
G1 X104.703 Y90.812 E0.09285
G1 X104.703 Y91.560 E0.01502
G1 X107.442 Y94.299 E0.07776
G1 X106.954 Y94.560 E0.01110
G1 X104.703 Y92.308 E0.06392
G1 X104.703 Y93.057 E0.01502
G1 X106.521 Y94.875 E0.05163
G1 X106.110 Y95.212 E0.01067
G1 X104.703 Y93.805 E0.03996
G1 X104.703 Y94.553 E0.01502
G1 X105.764 Y95.614 E0.03011
G1 X105.428 Y96.027 E0.01068
G1 X104.703 Y95.301 E0.02058
G1 X104.703 Y96.050 E0.01502
G1 X105.167 Y96.514 E0.01318
G1 X104.703 Y96.798 E0.01093
G1 X104.928 Y97.023 E0.00639
G1 X104.703 Y100.540 F7800.000
G1 X105.073 Y100.910 E0.01052 F1080.000
G1 X104.703 Y101.288 E0.01062
G1 X118.212 Y114.797 E0.38351
G1 X118.960 Y114.797 E0.01502
G1 X107.490 Y103.327 E0.32563
G1 X108.627 Y103.715 F7800.000
G1 X119.709 Y114.797 E0.31460 F1080.000
G1 X120.457 Y114.797 E0.01502
G1 X109.457 Y103.797 E0.31228
G1 X110.164 Y103.756 E0.01421
G1 X121.205 Y114.797 E0.31346
G1 X121.954 Y114.797 E0.01502
G1 X110.803 Y103.646 E0.31656
G1 X111.377 Y103.472 E0.01204
G1 X122.702 Y114.797 E0.32150
G1 X123.450 Y114.797 E0.01502
G1 X111.886 Y103.233 E0.32830
G1 X112.373 Y102.972 E0.01110
G1 X124.199 Y114.797 E0.33570
G1 X124.947 Y114.797 E0.01502
G1 X112.786 Y102.636 E0.34523
G1 X113.187 Y102.290 E0.01065
G1 X125.695 Y114.797 E0.35508
G1 X126.443 Y114.797 E0.01502
G1 X113.525 Y101.879 E0.36674
G1 X113.840 Y101.446 E0.01075
G1 X127.192 Y114.797 E0.37903
G1 X127.940 Y114.797 E0.01502
G1 X114.101 Y100.958 E0.39287
G1 X114.318 Y100.427 E0.01152
G1 X128.688 Y114.797 E0.40796
G1 X129.437 Y114.797 E0.01502
G1 X114.492 Y99.853 E0.42426
G1 X114.573 Y99.185 E0.01349
G1 X130.185 Y114.797 E0.44320
G1 X130.933 Y114.797 E0.01502
G1 X114.575 Y98.439 E0.46438
G1 X114.431 Y97.547 E0.01815
G1 X131.682 Y114.797 E0.48972
G1 X132.430 Y114.797 E0.01502
G1 X113.902 Y96.269 E0.52599
G1 X106.182 Y90.046 F7800.000
G1 X104.703 Y88.567 E0.04200 F1080.000
G1 X104.703 Y87.818 E0.01502
G1 X106.026 Y89.141 E0.03755
G1 X106.150 Y88.517 E0.01277
G1 X104.703 Y87.070 E0.04108
G1 X104.703 Y86.322 E0.01502
G1 X106.274 Y87.893 E0.04460
G1 X106.555 Y87.426 E0.01094
G1 X104.703 Y85.574 E0.05259
G1 X105.080 Y85.203 E0.01062
G1 X106.855 Y86.977 E0.05038
G1 X107.200 Y86.574 E0.01065
G1 X105.829 Y85.203 E0.03892
G1 X106.577 Y85.203 E0.01502
G1 X107.648 Y86.274 E0.03041
G1 X108.097 Y85.974 E0.01083
G1 X107.325 Y85.203 E0.02190
G1 X108.074 Y85.203 E0.01502
G1 X108.098 Y85.227 E0.00069
G1 X104.703 Y102.036 F7800.000
G1 X117.464 Y114.797 E0.36227 F1080.000
G1 X116.716 Y114.797 E0.01502
G1 X104.703 Y102.784 E0.34103
G1 X104.703 Y103.533 E0.01502
G1 X115.967 Y114.797 E0.31978
G1 X115.219 Y114.797 E0.01502
G1 X104.703 Y104.281 E0.29854
G1 X104.703 Y105.029 E0.01502
G1 X114.471 Y114.797 E0.27730
G1 X113.722 Y114.797 E0.01502
G1 X104.703 Y105.778 E0.25605
G1 X104.703 Y106.526 E0.01502
G1 X112.974 Y114.797 E0.23481
G1 X112.226 Y114.797 E0.01502
G1 X104.703 Y107.274 E0.21357
G1 X104.703 Y108.023 E0.01502
G1 X111.477 Y114.797 E0.19232
G1 X110.729 Y114.797 E0.01502
G1 X104.703 Y108.771 E0.17108
G1 X104.703 Y109.519 E0.01502
G1 X109.981 Y114.797 E0.14984
G1 X109.233 Y114.797 E0.01502
G1 X104.703 Y110.267 E0.12859
G1 X104.703 Y111.016 E0.01502
G1 X108.484 Y114.797 E0.10735
G1 X107.736 Y114.797 E0.01502
G1 X104.703 Y111.764 E0.08611
G1 X104.703 Y112.512 E0.01502
G1 X106.988 Y114.797 E0.06487
G1 X106.239 Y114.797 E0.01502
G1 X104.703 Y113.261 E0.04362
G1 X104.703 Y114.009 E0.01502
G1 X105.491 Y114.797 E0.02238
G1 X104.743 Y114.797 E0.01502
G1 X104.703 Y114.757 E0.00114
G1 X132.313 Y97.470 F7800.000
G1 X120.046 Y85.203 E0.34824 F1080.000
G1 X119.298 Y85.203 E0.01502
G1 X137.297 Y103.202 E0.51097
G1 X137.297 Y102.454 E0.01502
G1 X134.830 Y99.987 E0.07003
G1 X136.046 Y100.454 F7800.000
G1 X137.297 Y101.705 E0.03552 F1080.000
G1 X137.297 Y100.957 E0.01502
G1 X136.947 Y100.607 E0.00995
G1 X131.846 Y96.254 F7800.000
G1 X120.795 Y85.203 E0.31373 F1080.000
G1 X121.543 Y85.203 E0.01502
G1 X131.693 Y95.353 E0.28816
G1 X131.661 Y94.573 E0.01568
G1 X122.291 Y85.203 E0.26601
G1 X123.040 Y85.203 E0.01502
G1 X131.728 Y93.892 E0.24667
G1 X131.866 Y93.281 E0.01257
G1 X123.788 Y85.203 E0.22932
G1 X124.536 Y85.203 E0.01502
G1 X132.040 Y92.706 E0.21302
G1 X132.278 Y92.196 E0.01130
G1 X125.284 Y85.203 E0.19854
G1 X126.033 Y85.203 E0.01502
G1 X132.539 Y91.709 E0.18469
G1 X132.850 Y91.272 E0.01077
G1 X126.781 Y85.203 E0.17229
G1 X127.529 Y85.203 E0.01502
G1 X133.187 Y90.861 E0.16062
G1 X133.562 Y90.487 E0.01062
G1 X128.278 Y85.203 E0.15000
G1 X129.026 Y85.203 E0.01502
G1 X133.973 Y90.149 E0.14043
G1 X134.410 Y89.838 E0.01077
G1 X129.774 Y85.203 E0.13159
G1 X130.523 Y85.203 E0.01502
G1 X134.897 Y89.577 E0.12419
G1 X135.408 Y89.339 E0.01130
G1 X131.271 Y85.203 E0.11744
G1 X132.019 Y85.203 E0.01502
G1 X135.982 Y89.165 E0.11249
G1 X136.593 Y89.028 E0.01258
G1 X132.767 Y85.203 E0.10860
G1 X133.516 Y85.203 E0.01502
G1 X137.274 Y88.961 E0.10670
G1 X137.297 Y88.236 E0.01457
G1 X134.264 Y85.203 E0.08611
G1 X135.012 Y85.203 E0.01502
G1 X137.297 Y87.488 E0.06487
G1 X137.297 Y86.739 E0.01502
G1 X135.761 Y85.203 E0.04362
G1 X136.509 Y85.203 E0.01502
G1 X137.297 Y85.991 E0.02238
G1 X137.297 Y85.243 E0.01502
G1 X137.257 Y85.203 E0.00114
G1 X110.710 Y85.516 F7800.000
G1 X109.540 Y85.412 E0.03622 F480.000
G1 X108.490 Y85.516 E0.03253
G1 F1800.000 E-2.00000
G1 X69.875 Y91.475 F7800.000
G1 E2.00000 F1800.000
G1 X68.831 Y92.172 E0.02520 F720.000
G1 X67.600 Y92.417 E0.02520
G1 X66.369 Y92.172 E0.02520
G1 X65.325 Y91.475 E0.02520
G1 X64.628 Y90.431 E0.02520
G1 X64.383 Y89.200 E0.02520
G1 X64.628 Y87.969 E0.02520
G1 X65.325 Y86.925 E0.02520
G1 X66.369 Y86.228 E0.02520
G1 X67.600 Y85.983 E0.02520
G1 X68.534 Y86.169 E0.01912
G1 X68.831 Y86.228 E0.00608 F720.000
G1 X69.875 Y86.925 E0.02520
G1 X70.572 Y87.969 E0.02520
G1 X70.817 Y89.200 E0.02520
G1 X70.572 Y90.431 E0.02520
G1 X69.904 Y91.431 E0.02415
G1 X69.495 Y91.095 F7800.000
G1 X68.626 Y91.676 E0.02099 F720.000
G1 X67.600 Y91.880 E0.02099
G1 X67.406 Y91.842 E0.00398
G1 X66.574 Y91.676 E0.01702
