; generated by Slic3r 1.1.7 on 2014-08-26 at 10:14:50

; perimeters extrusion width = 0.38mm
; infill extrusion width = 0.60mm
; solid infill extrusion width = 0.55mm
; top infill extrusion width = 0.55mm

G21 ; set units to millimeters
M107
M190 S80 ; wait for bed temperature to be reached
M109 S230
G28 ; home all axes
G92 E0  ;reset extruder
G90 ; use absolute coordinates
M83 ; use relative distances for extrusion
G1 F1800.000 E-1.00000
G1 Z0.250 F7800.000
G1 X60.448 Y53.958 F7800.000
G1 E1.00000 F1800.000
G1 X68.195 Y45.279 E0.23354 F1440.000
G1 X69.252 Y44.327 E0.02854
G1 X84.190 Y33.577 E0.36944
G1 X86.241 Y32.590 E0.04569
G1 X88.002 Y32.348 E0.03569
G1 X96.749 Y32.367 E0.17558
G1 X151.489 Y36.566 E1.10207 F1440.000
G1 X153.694 Y37.133 E0.04569
G1 X155.185 Y38.073 E0.03540
G1 X172.118 Y52.281 E0.44371
G1 X173.580 Y54.026 E0.04569
G1 X174.353 Y56.167 E0.04569
G1 X174.319 Y58.578 E0.04840
G1 X157.903 Y139.558 E1.65865
G1 X157.069 Y141.676 E0.04569
G1 X156.181 Y142.817 E0.02902
G1 X143.336 Y155.998 E0.36944
G1 X141.487 Y157.326 E0.04569
G1 X140.144 Y157.799 E0.02860
G1 X98.608 Y167.481 E0.85613
G1 X97.126 Y167.652 E0.02994
G1 X47.126 Y167.652 E1.00369
G1 X44.885 Y167.255 E0.04569
G1 X42.916 Y166.112 E0.04569
G1 X41.459 Y164.363 E0.04569
G1 X40.853 Y162.925 E0.03134
G1 X26.103 Y111.511 E1.07369
G1 X25.949 Y108.578 E0.05896
G1 X27.381 Y100.456 E0.16556
G1 X28.189 Y98.271 E0.04677
G1 X42.126 Y74.670 E0.55020
G1 X42.877 Y73.642 E0.02555
G1 X60.413 Y53.997 E0.52861
G1 F1800.000 E-1.00000
G1 X79.967 Y156.466 F7800.000
G1 E1.00000 F1800.000
G1 X64.285 Y156.466 E0.31479 F720.000
G1 X64.285 Y140.784 E0.31479
G1 X79.967 Y140.784 E0.31479
G1 X79.967 Y156.413 E0.31374
G1 X79.440 Y155.939 F7800.000
G1 X64.812 Y155.939 E0.29365 F720.000
G1 X64.812 Y141.311 E0.29365
G1 X79.440 Y141.311 E0.29365
G1 X79.440 Y155.887 E0.29259
G1 X78.914 Y155.413 F7800.000
G1 X65.339 Y155.413 E0.27250 F504.000
G1 X65.339 Y141.838 E0.27250
G1 X78.914 Y141.838 E0.27250
G1 X78.914 Y155.360 E0.27145
G1 X78.914 Y155.763 F7800.000
G1 X87.285 Y158.466 F7800.000
G1 X95.785 Y158.466 E0.17063 F720.000
G1 X95.785 Y159.784 E0.02646
G1 X48.467 Y159.784 E0.94986
G1 X48.467 Y158.466 E0.02646
G1 X56.967 Y158.466 E0.17063
G1 X56.967 Y126.466 E0.64236
G1 X87.285 Y126.466 E0.60860
G1 X87.285 Y158.413 E0.64131
G1 X87.812 Y157.939 F7800.000
G1 X96.312 Y157.939 E0.17063 F720.000
G1 X96.312 Y160.311 E0.04761
G1 X47.940 Y160.311 E0.97100
G1 X47.940 Y157.939 E0.04761
G1 X56.440 Y157.939 E0.17063
G1 X56.440 Y125.939 E0.64236
G1 X87.812 Y125.939 E0.62975
G1 X87.812 Y157.887 E0.64131
G1 X88.339 Y157.413 F7800.000
G1 X96.839 Y157.413 E0.17063 F504.000
G1 X96.839 Y160.838 E0.06875
G1 X47.414 Y160.838 E0.99215
G1 X47.414 Y157.413 E0.06875
G1 X55.914 Y157.413 E0.17063
G1 X55.914 Y125.413 E0.64236
G1 X88.339 Y125.413 E0.65089
G1 X88.339 Y157.360 E0.64131
G1 X88.339 Y157.763 F7800.000
G1 X86.923 Y147.731 F7800.000
G1 X80.329 Y141.137 E0.18721 F1080.000
G1 X80.329 Y141.882 E0.01496
G1 X86.923 Y148.476 E0.18721
G1 X86.923 Y149.222 E0.01496
G1 X80.329 Y142.627 E0.18721
G1 X80.329 Y143.372 E0.01496
G1 X86.923 Y149.967 E0.18721
G1 X86.923 Y150.712 E0.01496
G1 X80.329 Y144.117 E0.18721
G1 X80.329 Y144.863 E0.01496
G1 X86.923 Y151.457 E0.18721
G1 X86.923 Y152.202 E0.01496
G1 X80.329 Y145.608 E0.18721
G1 X80.329 Y146.353 E0.01496
G1 X86.923 Y152.947 E0.18721
G1 X86.923 Y153.692 E0.01496
G1 X80.329 Y147.098 E0.18721
G1 X80.329 Y147.843 E0.01496
G1 X86.923 Y154.437 E0.18721
G1 X86.923 Y155.183 E0.01496
G1 X80.329 Y148.588 E0.18721
G1 X80.329 Y149.333 E0.01496
G1 X86.923 Y155.928 E0.18721
G1 X86.923 Y156.673 E0.01496
G1 X80.329 Y150.078 E0.18721
G1 X80.329 Y150.824 E0.01496
G1 X86.923 Y157.418 E0.18721
G1 X86.923 Y158.163 E0.01496
G1 X80.329 Y151.569 E0.18721
G1 X80.329 Y152.314 E0.01496
G1 X86.660 Y158.645 E0.17973
G1 X86.656 Y159.386 E0.01488
G1 X80.329 Y153.059 E0.17962
G1 X80.329 Y153.804 E0.01496
G1 X85.947 Y159.422 E0.15949
G1 X85.202 Y159.422 E0.01496
G1 X80.329 Y154.549 E0.13834
G1 X80.329 Y155.294 E0.01496
G1 X84.457 Y159.422 E0.11719
G1 X83.712 Y159.422 E0.01496
G1 X80.329 Y156.039 E0.09603
G1 X80.329 Y156.785 E0.01496
G1 X82.967 Y159.422 E0.07488
G1 X82.221 Y159.422 E0.01496
G1 X79.627 Y156.828 E0.07365
G1 X78.882 Y156.828 E0.01496
G1 X81.476 Y159.422 E0.07365
G1 X80.731 Y159.422 E0.01496
G1 X78.137 Y156.828 E0.07365
G1 X77.392 Y156.828 E0.01496
G1 X79.986 Y159.422 E0.07365
G1 X79.241 Y159.422 E0.01496
G1 X76.647 Y156.828 E0.07365
G1 X75.901 Y156.828 E0.01496
G1 X78.496 Y159.422 E0.07365
G1 X77.751 Y159.422 E0.01496
G1 X75.156 Y156.828 E0.07365
G1 X74.411 Y156.828 E0.01496
G1 X77.006 Y159.422 E0.07365
G1 X76.260 Y159.422 E0.01496
G1 X73.666 Y156.828 E0.07365
G1 X72.921 Y156.828 E0.01496
G1 X75.515 Y159.422 E0.07365
G1 X74.770 Y159.422 E0.01496
G1 X72.176 Y156.828 E0.07365
G1 X71.431 Y156.828 E0.01496
G1 X74.025 Y159.422 E0.07365
G1 X73.280 Y159.422 E0.01496
G1 X70.686 Y156.828 E0.07365
G1 X69.940 Y156.828 E0.01496
G1 X72.535 Y159.422 E0.07365
G1 X71.790 Y159.422 E0.01496
G1 X69.195 Y156.828 E0.07365
G1 X68.450 Y156.828 E0.01496
G1 X71.045 Y159.422 E0.07365
G1 X70.299 Y159.422 E0.01496
G1 X67.705 Y156.828 E0.07365
G1 X66.960 Y156.828 E0.01496
G1 X69.554 Y159.422 E0.07365
G1 X68.809 Y159.422 E0.01496
G1 X66.215 Y156.828 E0.07365
G1 X65.470 Y156.828 E0.01496
G1 X68.064 Y159.422 E0.07365
G1 X67.319 Y159.422 E0.01496
G1 X64.724 Y156.828 E0.07365
G1 X63.979 Y156.828 E0.01496
G1 X66.574 Y159.422 E0.07365
G1 X65.829 Y159.422 E0.01496
G1 X57.329 Y150.922 E0.24130
G1 X57.329 Y150.177 E0.01496
G1 X63.923 Y156.772 E0.18721
G1 X63.923 Y156.027 E0.01496
G1 X57.329 Y149.432 E0.18721
G1 X57.329 Y148.687 E0.01496
G1 X63.923 Y155.282 E0.18721
G1 X63.923 Y154.536 E0.01496
G1 X57.329 Y147.942 E0.18721
G1 X57.329 Y147.197 E0.01496
G1 X63.923 Y153.791 E0.18721
G1 X63.923 Y153.046 E0.01496
G1 X57.329 Y146.452 E0.18721
G1 X57.329 Y145.707 E0.01496
G1 X63.923 Y152.301 E0.18721
G1 X63.923 Y151.556 E0.01496
G1 X57.329 Y144.961 E0.18721
G1 X57.329 Y144.216 E0.01496
G1 X63.923 Y150.811 E0.18721
G1 X63.923 Y150.066 E0.01496
G1 X57.329 Y143.471 E0.18721
G1 X57.329 Y142.726 E0.01496
G1 X63.923 Y149.321 E0.18721
G1 X63.923 Y148.575 E0.01496
G1 X57.329 Y141.981 E0.18721
G1 X57.329 Y141.236 E0.01496
G1 X63.923 Y147.830 E0.18721
G1 X63.923 Y147.085 E0.01496
G1 X57.329 Y140.491 E0.18721
G1 X57.329 Y139.746 E0.01496
G1 X63.923 Y146.340 E0.18721
G1 X63.923 Y145.595 E0.01496
G1 X57.329 Y139.000 E0.18721
G1 X57.329 Y138.255 E0.01496
G1 X63.923 Y144.850 E0.18721
G1 X63.923 Y144.105 E0.01496
G1 X57.329 Y137.510 E0.18721
G1 X57.329 Y136.765 E0.01496
G1 X63.923 Y143.360 E0.18721
G1 X63.923 Y142.614 E0.01496
G1 X57.329 Y136.020 E0.18721
G1 X57.329 Y135.275 E0.01496
G1 X63.923 Y141.869 E0.18721
G1 X63.923 Y141.124 E0.01496
G1 X57.329 Y134.530 E0.18721
G1 X57.329 Y133.785 E0.01496
G1 X63.967 Y140.422 E0.18843
G1 X64.712 Y140.422 E0.01496
G1 X57.329 Y133.039 E0.20959
G1 X57.329 Y132.294 E0.01496
G1 X65.457 Y140.422 E0.23074
G1 X66.202 Y140.422 E0.01496
G1 X57.329 Y131.549 E0.25189
G1 X57.329 Y130.804 E0.01496
G1 X66.947 Y140.422 E0.27305
G1 X67.692 Y140.422 E0.01496
G1 X57.329 Y130.059 E0.29420
G1 X57.329 Y129.314 E0.01496
G1 X68.437 Y140.422 E0.31535
G1 X69.182 Y140.422 E0.01496
G1 X57.329 Y128.569 E0.33651
G1 X57.329 Y127.824 E0.01496
G1 X69.928 Y140.422 E0.35766
G1 X70.673 Y140.422 E0.01496
G1 X57.329 Y127.078 E0.37881
G1 X57.823 Y126.828 E0.01113
G1 X71.418 Y140.422 E0.38593
G1 X72.163 Y140.422 E0.01496
G1 X58.569 Y126.828 E0.38593
G1 X59.314 Y126.828 E0.01496
G1 X72.908 Y140.422 E0.38593
G1 X73.653 Y140.422 E0.01496
G1 X60.059 Y126.828 E0.38593
G1 X60.804 Y126.828 E0.01496
G1 X74.398 Y140.422 E0.38593
G1 X75.144 Y140.422 E0.01496
G1 X61.549 Y126.828 E0.38593
G1 X62.294 Y126.828 E0.01496
G1 X75.889 Y140.422 E0.38593
G1 X76.634 Y140.422 E0.01496
G1 X63.039 Y126.828 E0.38593
G1 X63.784 Y126.828 E0.01496
G1 X77.379 Y140.422 E0.38593
G1 X78.124 Y140.422 E0.01496
G1 X64.530 Y126.828 E0.38593
G1 X65.275 Y126.828 E0.01496
G1 X78.869 Y140.422 E0.38593
G1 X79.614 Y140.422 E0.01496
G1 X66.020 Y126.828 E0.38593
G1 X66.765 Y126.828 E0.01496
G1 X86.923 Y146.986 E0.57227
G1 X86.923 Y146.241 E0.01496
G1 X67.510 Y126.828 E0.55112
G1 X68.255 Y126.828 E0.01496
G1 X86.923 Y145.496 E0.52996
G1 X86.923 Y144.751 E0.01496
G1 X69.000 Y126.828 E0.50881
G1 X69.745 Y126.828 E0.01496
G1 X86.923 Y144.006 E0.48766
G1 X86.923 Y143.261 E0.01496
G1 X70.491 Y126.828 E0.46650
G1 X71.236 Y126.828 E0.01496
G1 X86.923 Y142.515 E0.44535
G1 X86.923 Y141.770 E0.01496
G1 X71.981 Y126.828 E0.42420
G1 X72.726 Y126.828 E0.01496
G1 X86.923 Y141.025 E0.40305
G1 X86.923 Y140.280 E0.01496
G1 X73.471 Y126.828 E0.38189
G1 X74.216 Y126.828 E0.01496
G1 X86.923 Y139.535 E0.36074
G1 X86.923 Y138.790 E0.01496
G1 X74.961 Y126.828 E0.33959
G1 X75.706 Y126.828 E0.01496
G1 X86.923 Y138.045 E0.31843
G1 X86.923 Y137.300 E0.01496
G1 X76.452 Y126.828 E0.29728
G1 X77.197 Y126.828 E0.01496
G1 X86.923 Y136.554 E0.27613
G1 X86.923 Y135.809 E0.01496
G1 X77.942 Y126.828 E0.25497
G1 X78.687 Y126.828 E0.01496
G1 X86.923 Y135.064 E0.23382
G1 X86.923 Y134.319 E0.01496
G1 X79.432 Y126.828 E0.21267
G1 X80.177 Y126.828 E0.01496
G1 X86.923 Y133.574 E0.19151
G1 X86.923 Y132.829 E0.01496
G1 X80.922 Y126.828 E0.17036
G1 X81.667 Y126.828 E0.01496
G1 X86.923 Y132.084 E0.14921
G1 X86.923 Y131.339 E0.01496
G1 X82.413 Y126.828 E0.12805
G1 X83.158 Y126.828 E0.01496
G1 X86.923 Y130.593 E0.10690
G1 X86.923 Y129.848 E0.01496
G1 X83.903 Y126.828 E0.08575
G1 X84.648 Y126.828 E0.01496
G1 X86.923 Y129.103 E0.06460
G1 X86.923 Y128.358 E0.01496
G1 X85.393 Y126.828 E0.04344
G1 X86.138 Y126.828 E0.01496
G1 X86.923 Y127.613 E0.02229
G1 X86.923 Y126.868 E0.01496
G1 X86.883 Y126.828 E0.00114
G1 F1800.000 E-1.00000
G1 X65.084 Y159.422 F7800.000
G1 E1.00000 F1800.000
G1 X57.329 Y151.668 E0.22014 F1080.000
G1 X57.329 Y152.413 E0.01496
G1 X64.338 Y159.422 E0.19899
G1 X63.593 Y159.422 E0.01496
G1 X57.329 Y153.158 E0.17784
G1 X57.329 Y153.903 E0.01496
G1 X62.848 Y159.422 E0.15668
G1 X62.103 Y159.422 E0.01496
G1 X57.329 Y154.648 E0.13553
G1 X57.329 Y155.393 E0.01496
G1 X61.358 Y159.422 E0.11438
G1 X60.613 Y159.422 E0.01496
G1 X57.329 Y156.138 E0.09322
G1 X57.329 Y156.883 E0.01496
G1 X59.868 Y159.422 E0.07207
G1 X59.123 Y159.422 E0.01496
G1 X57.329 Y157.629 E0.05092
G1 X57.592 Y158.637 E0.02092
G1 X58.377 Y159.422 E0.02229
G1 X57.632 Y159.422 E0.01496
G1 X57.592 Y159.382 E0.00114
G1 X87.022 Y159.125 F7800.000
G1 X95.522 Y159.125 E0.26202 F480.000
G1 X57.230 Y159.125 F7800.000
G1 X48.730 Y159.125 E0.26202 F480.000
G1 F1800.000 E-1.00000
G1 X99.563 Y133.155 F7800.000
G1 E1.00000 F1800.000
G1 X98.808 Y132.692 E0.01778 F720.000
G1 X98.135 Y132.117 E0.01778
G1 X97.559 Y131.443 E0.01778
G1 X97.096 Y130.688 E0.01778
G1 X96.757 Y129.869 E0.01778
G1 X96.551 Y129.008 E0.01778
G1 X96.481 Y128.125 E0.01778
G1 X96.551 Y127.242 E0.01778
G1 X96.757 Y126.381 E0.01778
G1 X97.096 Y125.562 E0.01778
G1 X97.559 Y124.807 E0.01778
G1 X98.135 Y124.133 E0.01778
G1 X98.808 Y123.558 E0.01778
G1 X99.563 Y123.095 E0.01778
G1 X100.382 Y122.756 E0.01778
G1 X101.243 Y122.549 E0.01778
G1 X102.126 Y122.480 E0.01778
G1 X102.254 Y122.490 E0.00256
G1 X103.009 Y122.549 E0.01522 F720.000
G1 X103.871 Y122.756 E0.01778
G1 X104.689 Y123.095 E0.01778
G1 X105.444 Y123.558 E0.01778
G1 X105.541 Y123.641 E0.00256
G1 X106.118 Y124.133 E0.01522
G1 X106.693 Y124.807 E0.01778
G1 X107.156 Y125.562 E0.01778
G1 X107.495 Y126.381 E0.01778
G1 X107.702 Y127.242 E0.01778
G1 X107.771 Y128.125 E0.01778
G1 X107.702 Y129.008 E0.01778
G1 X107.495 Y129.869 E0.01778
G1 X107.156 Y130.688 E0.01778
G1 X106.693 Y131.443 E0.01778
G1 X106.118 Y132.117 E0.01778
G1 X105.541 Y132.609 E0.01522
G1 X105.444 Y132.692 E0.00256
G1 X104.689 Y133.155 E0.01778
G1 X103.871 Y133.494 E0.01778
G1 X103.133 Y133.671 E0.01522
G1 X103.009 Y133.701 E0.00256
G1 X102.126 Y133.770 E0.01778
G1 X101.243 Y133.701 E0.01778
G1 X100.382 Y133.494 E0.01778
G1 X99.612 Y133.175 E0.01673
G1 X99.803 Y132.684 F7800.000
G1 X99.119 Y132.265 E0.01612 F720.000
G1 X98.508 Y131.743 E0.01612
G1 X97.987 Y131.133 E0.01612
G1 X97.567 Y130.448 E0.01612
G1 X97.260 Y129.706 E0.01612
G1 X97.072 Y128.925 E0.01612
G1 X97.009 Y128.125 E0.01612
G1 X97.072 Y127.325 E0.01612
G1 X97.260 Y126.544 E0.01612
G1 X97.567 Y125.802 E0.01612
G1 X97.987 Y125.117 E0.01612
G1 X98.508 Y124.507 E0.01612
G1 X99.119 Y123.985 E0.01612
G1 X99.803 Y123.566 E0.01612
G1 X100.545 Y123.259 E0.01612
G1 X101.412 Y123.065 E0.01783
G1 X102.126 Y123.008 E0.01439 F720.000
G1 X102.927 Y123.071 E0.01612
G1 X103.707 Y123.259 E0.01612
G1 X104.449 Y123.566 E0.01612
G1 X105.134 Y123.985 E0.01612
G1 X105.744 Y124.507 E0.01612
G1 X106.266 Y125.117 E0.01612
G1 X106.685 Y125.802 E0.01612
G1 X106.992 Y126.544 E0.01612
G1 X107.180 Y127.325 E0.01612
G1 X107.243 Y128.125 E0.01612
G1 X107.180 Y128.925 E0.01612
G1 X106.992 Y129.706 E0.01612
G1 X106.685 Y130.448 E0.01612
G1 X106.266 Y131.133 E0.01612
G1 X105.744 Y131.743 E0.01612
G1 X105.199 Y132.208 E0.01439
G1 X104.449 Y132.684 E0.01783
G1 X103.707 Y132.991 E0.01612
G1 X103.010 Y133.159 E0.01439
G1 X102.126 Y133.242 E0.01783
G1 X101.326 Y133.179 E0.01612
G1 X100.545 Y132.991 E0.01612
G1 X99.852 Y132.704 E0.01506
G1 X100.043 Y132.213 F7800.000
G1 X99.429 Y131.837 E0.01445 F504.000
G1 X98.882 Y131.369 E0.01445
G1 X98.414 Y130.822 E0.01445
G1 X98.038 Y130.208 E0.01445
G1 X97.762 Y129.543 E0.01445
G1 X97.594 Y128.843 E0.01445
G1 X97.538 Y128.125 E0.01445
G1 X97.594 Y127.407 E0.01445
G1 X97.762 Y126.707 E0.01445
G1 X98.038 Y126.042 E0.01445
G1 X98.414 Y125.428 E0.01445
G1 X98.882 Y124.881 E0.01445
G1 X99.429 Y124.413 E0.01445
G1 X100.043 Y124.037 E0.01445
G1 X100.708 Y123.761 E0.01445
G1 X101.408 Y123.593 E0.01445
G1 X102.171 Y123.540 E0.01534
G1 X102.844 Y123.593 E0.01355 F504.000
G1 X103.544 Y123.761 E0.01445
G1 X104.209 Y124.037 E0.01445
G1 X104.857 Y124.442 E0.01534
G1 X105.371 Y124.881 E0.01355
G1 X105.838 Y125.428 E0.01445
G1 X106.214 Y126.042 E0.01445
G1 X106.490 Y126.707 E0.01445
G1 X106.658 Y127.407 E0.01445
G1 X106.715 Y128.125 E0.01445
G1 X106.658 Y128.843 E0.01445
G1 X106.490 Y129.543 E0.01445
G1 X106.214 Y130.208 E0.01445
G1 X105.838 Y130.822 E0.01445
G1 X105.371 Y131.369 E0.01445
G1 X104.857 Y131.808 E0.01355
G1 X104.209 Y132.213 E0.01534
G1 X103.544 Y132.489 E0.01445
G1 X102.888 Y132.646 E0.01355
G1 X102.126 Y132.713 E0.01534
G1 X101.408 Y132.657 E0.01445
G1 X100.708 Y132.489 E0.01445
G1 X100.092 Y132.233 E0.01340
G1 F1800.000 E-1.00000
G1 X102.208 Y123.192 F7800.000
G1 X98.881 Y134.493 F7800.000
G1 E1.00000 F1800.000
G1 X98.548 Y134.323 E0.00752 F720.000
G1 X97.919 Y133.915 E0.01504
G1 X97.337 Y133.444 E0.01504
G1 X96.807 Y132.914 E0.01504
G1 X96.336 Y132.332 E0.01504
G1 X95.928 Y131.704 E0.01504
G1 X95.588 Y131.036 E0.01504
G1 X95.319 Y130.337 E0.01504
G1 X95.125 Y129.613 E0.01504
G1 X95.008 Y128.873 E0.01504
G1 X94.969 Y128.125 E0.01504
G1 X95.008 Y127.377 E0.01504
G1 X95.125 Y126.637 E0.01504
G1 X95.319 Y125.913 E0.01504
G1 X95.588 Y125.214 E0.01504
G1 X95.928 Y124.546 E0.01504
G1 X96.336 Y123.918 E0.01504
G1 X96.807 Y123.336 E0.01504
G1 X97.337 Y122.806 E0.01504
G1 X97.919 Y122.335 E0.01504
G1 X98.548 Y121.927 E0.01504
G1 X99.215 Y121.587 E0.01504
G1 X99.914 Y121.318 E0.01504
G1 X100.638 Y121.124 E0.01504
G1 X101.378 Y121.007 E0.01504
G1 X102.126 Y120.968 E0.01504
G1 X102.874 Y121.007 E0.01504
G1 X103.614 Y121.124 E0.01504 F720.000
G1 X104.338 Y121.318 E0.01504
G1 X105.037 Y121.587 E0.01504
G1 X105.705 Y121.927 E0.01504
G1 X106.333 Y122.335 E0.01504
G1 X106.915 Y122.806 E0.01504
G1 X107.445 Y123.336 E0.01504
G1 X107.916 Y123.918 E0.01504
G1 X108.325 Y124.546 E0.01504
G1 X108.665 Y125.214 E0.01504
G1 X108.933 Y125.913 E0.01504
G1 X109.127 Y126.637 E0.01504
G1 X109.244 Y127.377 E0.01504
G1 X109.283 Y128.125 E0.01504
G1 X109.244 Y128.873 E0.01504
G1 X109.127 Y129.613 E0.01504
G1 X108.933 Y130.337 E0.01504
G1 X108.665 Y131.036 E0.01504
G1 X108.325 Y131.704 E0.01504
G1 X107.916 Y132.332 E0.01504
G1 X107.445 Y132.914 E0.01504
G1 X106.915 Y133.444 E0.01504
G1 X106.333 Y133.915 E0.01504
G1 X105.705 Y134.323 E0.01504
